X:215
T:Such Things Are. VWMLa.215
%%VWML:Anon2-3049-p135-0
F:http://www.vwml.org/record/Anon2/3049/p135
S:Anon. MS, late 18thC, Vaughan Williams Mem. Library
O:England;Yorkshire
Z:vmp/efdss.Simon Wilson. Reviewed PJH 2008.
M:6/8
L:1/8
Q:3/8=120
K:G
d|B2B !turn!B>AB|(c3 A2)c|Bdg dBG|[F2A2][FA] [F2A2]d|\
B2B !turn!B>AB|c3 e3|dcB AGF|G3 G,2:|
d|d>ef !turn!g>fg|eag fed|ecA dBG|EAG !turn!F>ED|\
d>ef !turn!g>fg|eag fed|efg agf|g3 g>fe|
"P"d2B !turn!B>AB|c3A2c|Bdg dBG|[F2A2][FA] [F2A2]d|\
"^F"B2B !turn!B>AB|cef gfe|dcB AGF|G3 G,2|]
